assets/icons/qvision/panorama_vertical_select.svg

<svg width="24" height="24" viewBox="0 0 24 24" fill="none" xmlns="http://www.w3.org/2000/svg">
<g clip-path="url(#clip0_147_3650)">
<path d="M19.93 21.12C18.83 18.18 18.29 15.09 18.29 12C18.29 8.91 18.84 5.82 19.93 2.88C19.98 2.77 20 2.66 20 2.57C20 2.23 19.76 2 19.36 2H4.61999C4.21999 2 3.98999 2.23 3.98999 2.57C3.98999 2.67 4.00999 2.77 4.04999 2.88C5.15999 5.82 5.69999 8.91 5.69999 12C5.69999 15.09 5.14999 18.18 4.05999 21.12C4.00999 21.23 3.98999 21.34 3.98999 21.43C3.98999 21.76 4.21999 22 4.61999 22H19.37C19.76 22 20 21.76 20 21.43C20 21.33 19.98 21.23 19.93 21.12Z" fill="#323232"/>
</g>
<defs>
<clipPath id="clip0_147_3650">
<rect width="24" height="24" fill="white"/>
</clipPath>
</defs>
</svg>

<svg xmlns="http://www.w3.org/2000/svg" height="24" viewBox="0 0 24 24" width="24"><path d="M0 0h24v24H0z" fill="none"/><path d="M19.93 21.12c-1.1-2.94-1.64-6.03-1.64-9.12s.55-6.18 1.64-9.12c.05-.11.07-.22.07-.31 0-.34-.24-.57-.64-.57H4.62c-.4 0-.63.23-.63.57 0 .1.02.2.06.31C5.16 5.82 5.7 8.91 5.7 12s-.55 6.18-1.64 9.12c-.05.11-.07.22-.07.31 0 .33.23.57.63.57h14.75c.39 0 .63-.24.63-.57 0-.1-.02-.2-.07-.31z"/></svg>
